archdroid-icon-theme/Archdroid-DeepOrange/apps/scalable/gnome-fs-bookmark-missing.svg

<svg fill="#FF5722" height="48" viewBox="0 0 28 36" width="28" xmlns="http://www.w3.org/2000/svg"><path d="m24 0h-20c-2.21 0-3.98 1.79-3.98 4l-.02 32 14-6 14 6v-32c0-2.21-1.79-4-4-4zm0 30-10-4.35-10 4.35v-26h20z" fill="#FF5722"/></svg>

<svg fill="#FF5722" height="48" version="1.1" viewBox="0 0 28 36" width="28" xmlns="http://www.w3.org/2000/svg"><path d="M24 0L4 0C1.79 0 .02 1.79.02 4L0 36 14 30 28 36 28 4C28 1.79 26.21 0 24 0ZM24 30L14 25.65 4 30 4 4 24 4 24 30Z"/></svg>
